packages/foundations/assets/icons/functional/images/maps/navigation_to_right_12.svg

<svg width="12" height="12" viewBox="0 0 12 12" fill="none" xmlns="http://www.w3.org/2000/svg">
<g clip-path="url(#clip0_2213_5420)">
<path fill-rule="evenodd" clip-rule="evenodd" d="M6.05867 1.10767C6.22199 1.10767 6.38531 1.16885 6.48734 1.29121L8.89319 3.69465C9.01571 3.79666 9.07694 3.95986 9.07694 4.12305C9.07694 4.26583 9.01571 4.42903 8.89319 4.55145L6.4258 7.01643C6.32377 7.11838 6.16045 7.19997 5.99713 7.19997C5.65005 7.19997 5.38463 6.91441 5.38463 6.58802C5.38463 6.42483 5.44586 6.26163 5.56839 6.1392L6.9711 4.73782L4.76925 4.73844C4.42938 4.73844 4.15387 5.01395 4.15387 5.35382V10.2769C4.15387 10.6168 3.87835 10.8923 3.53848 10.8923C3.19861 10.8923 2.9231 10.6168 2.9231 10.2769V5.35382C2.9231 4.33422 3.74965 3.50767 4.76925 3.50767L6.96986 3.50705L5.62993 2.16844C5.50848 2.03763 5.44723 1.88803 5.44617 1.71962C5.44617 1.39323 5.71159 1.10767 6.05867 1.10767Z" fill="#1A1C1F"/>
</g>
<defs>
<clipPath id="clip0_2213_5420">
<rect width="12" height="12" fill="white"/>
</clipPath>
</defs>
</svg>

<svg xmlns="http://www.w3.org/2000/svg" width="12" height="12" fill="none"><g clip-path="url(#a)"><path fill="#1A1C1F" fill-rule="evenodd" d="M6.059 1.108c.163 0 .326.06.428.183l2.406 2.404a.56.56 0 0 1 .184.428.62.62 0 0 1-.184.428L6.426 7.016a.64.64 0 0 1-.429.184.614.614 0 0 1-.612-.612c0-.163.06-.326.183-.449l1.403-1.401H4.77a.615.615 0 0 0-.615.616v4.923a.615.615 0 1 1-1.23 0V5.354c0-1.02.826-1.846 1.845-1.846l2.2-.001-1.34-1.339a.65.65 0 0 1-.183-.448c0-.327.266-.612.613-.612" clip-rule="evenodd"/></g><defs><clipPath id="a"><path fill="#fff" d="M0 0h12v12H0z"/></clipPath></defs></svg>
